X: 1676
T: Early in the Morning   #2
R: hornpipe, reel
%S: s:2 b:13(6+7)
B: O'Neill's 1850 #1676
O: F.O'Neill
Z: Compacted via repeats and multiple endings [JC]
M: 4/4
L: 1/8
K: A
E2 |: E>A(3AAA (Ac)BA | GABc d2(cd) | efge dB [1,3 AG | EDEF GBAG :|[2,4 GA | B2AA A2 :: (cd) | (3eee ed cAce |
| dcBc d2(cd) | (3efg fd edce | dcBA GBAG || E>A (3AAA (Ac)BA | GABc d2(cd) | efge dBGA | B2AA A2 :|
